!!!OTL: "Kluge Heirath" ICH GING EINMAL LUSTWANDELN
!!!ARE: Europa, Mitteleuropa, Deutschland, Hessen
!!!SCT: Z1111
!!!YEM: Copyright 1995, estate of Helmut Schaffrath.
**kern
*ICvox
*Ivox
*M3/4
*k[]
*C:
{4G
=1
2c
4c
=2
4d
4e
4c
=3
2.B
=4
4A
4r}
{4A
=5
4c
4c
4c
=6
4c
4G}
{4G
=7
2c
4c
=8
4d
4e
4c
=9
2B
4B
=10
4A
4r}
{4A
=11
4c
4c
4c
=12
4c
4G}
{4G
=13
2c
4e
=14
4.e
8d
4c
=15
4B
4A
4A
=16
4A
4r}
{4A
=17
4d
4d
4d
=18
4d
4e
4c
=19
2B
8d
8B
=20
4G
4r}
{4G
=21
4c
4c
4c
=22
4c
4G
4c
=23
4e
4e
8e
8e
=24
4.g
8f
4e
=25
2.d
=26
4c
4r}
==
!!!AGN: Romanze, Ballade
!!!ONB: ESAC (Essen Associative Code) Database: ZUCCAL
!!!AMT: simple triple
!!!AIN: vox
!!!EED: Helmut Schaffrath
!!!EEV: 1.0
*-
